!! 00000] TT[WS
!!!OTL: Qing ge
!!!ARE: Asia, China, Shanxi Yangquan
!! Ethnic Group: Han
!! WI, 271 (2)
!!!SCT: J0323
!!!YEM: Copyright 1995, estate of Helmut Schaffrath.
**kern
*ICvox
*Ivox
*M2/4
*k[f#c#g#]
*A:
{8cc#
4b
8e
=1
2ee
=2
8cc#
4b
8e
=3
2ee}
=4
{8cc#
4b
8a
=5
4b
8ee
8aa
=6
8g#
4b
8f#
=7
2e}
=8
{4a
8g#
8f#
=9
4e
4e
=10
4b
8.b
16ee
=11
2ee}
=12
{8cc#
16b
16a
4e
=13
8.b
16b
8ee
8a
=14
8g#
4b
8f#
=15
2e}
==
!!!AGN: Xiaodiao. Qingge
!!!ONB: ESAC (Essen Associative Code) Database: CHINA
!!!AMT: simple duple
!!!AIN: vox
!!!EED: Helmut Schaffrath
!!!EEV: 1.0
*-
